X:371
T:Gallowa' Hills, The
R:March
M:4/4
L:1/8
K:D
|: FG |\
"D" A2 d2 F2 FG | A2 d2 A3 F  | "C" G3 E      =C2 CE |     G2 =cB  "D" A3 F    |
"D" D3 E  F3 G  | A2 d2 F2 ED | "G" G>F GB "D" A3 F  | "C" E3 D    "D" D2 FG  ||
||\
"D" AA d2 F3 G  | AA d2 F3 F  | "C" G3 E      =C2 CE |     G2 =cB  "D" A3 F    |
"D" D3 E  F3 G  | A2 d2 F2 ED | "G" G>F GB "D" A3 F  | "C" E3 D    "D" D2      |]
